X: 46
T:Soldiers Joy
R:Rant
C:Trad
M:4/4
L:1/8
K:D
FG | AFDF AFDF | A2 d2d2 cB | AFDF AFDF | G2 E2 E2 FG|
   | AFDF AFDF | A2 d2 d2 e2 | fagf egfe | d2 d2 d2 :|
de | f2 f2 fage | e2 e2 egfe | f2 f2 fagf | edcB A2 de |
   | f2f2 fagf |e2e2 egfe | fagf egfe | d2 d2 d2 :|
